icons/snow-night.svg

<svg width="53" height="54" viewBox="0 0 53 54" fill="none" xmlns="http://www.w3.org/2000/svg">
<path d="M0 28.3183C0 31.5651 1.13952 34.3481 3.39433 36.6917C5.64913 39.0353 8.41308 40.2803 11.6377 40.3779C11.9286 40.3779 12.0741 40.2315 12.0741 39.9629V36.6917C12.0741 36.4231 11.9286 36.2767 11.6377 36.2767C9.57685 36.179 7.80695 35.3246 6.35224 33.7622C4.87328 32.1998 4.14593 30.3689 4.14593 28.2939C4.14593 26.2188 4.82479 24.4367 6.20677 22.9231C7.58875 21.4096 9.28591 20.5796 11.2983 20.4087L12.5833 20.2378C12.8984 20.2378 13.0682 20.0913 13.0682 19.8228L13.2379 18.5533C13.5046 15.8924 14.5956 13.6465 16.5595 11.84C18.5233 10.0335 20.8266 9.1302 23.4936 9.1302C26.1363 9.1302 28.4396 10.0335 30.4277 11.8156C32.4158 13.5976 33.5311 15.8192 33.822 18.4557L34.016 19.8472C34.016 20.1401 34.1615 20.2866 34.4282 20.2866H38.3559C40.5622 20.2866 42.4291 21.0678 44.005 22.6546C45.581 24.217 46.3568 26.0967 46.3568 28.2939C46.3568 30.3689 45.6295 32.1998 44.1505 33.7622C42.6715 35.3246 40.9259 36.1546 38.865 36.2767C38.5256 36.2767 38.3559 36.4231 38.3559 36.6917V39.9629C38.3559 40.2315 38.5256 40.3779 38.865 40.3779C40.9986 40.3291 42.9382 39.7432 44.7081 38.6447C46.478 37.5461 47.8843 36.0814 48.9026 34.2505C49.9209 32.4195 50.43 30.4421 50.43 28.3183C50.43 26.0967 49.8966 24.0705 48.8541 22.264C50.6482 20.6528 51.8605 18.5533 52.5393 15.9656L52.9515 14.208C52.9758 14.1835 53 14.1103 53 14.0127C53 13.8418 52.8788 13.6953 52.6121 13.6221L51.1331 13.2071C50.0663 12.8897 49.1208 12.4259 48.2964 11.8156C47.4721 11.2052 46.8175 10.5217 46.3326 9.76492C45.8477 9.00814 45.5082 8.25136 45.2658 7.44575C45.0233 6.66456 44.9021 5.88336 44.9021 5.12658C44.9021 4.46745 44.9748 3.75949 45.1446 3.02713L45.4112 1.51356C45.4597 1.29385 45.3628 1.09855 45.0718 0.976492L43.1322 0.390596C42.0654 0.122061 41.0714 0 40.1016 0C39.2045 0 38.3074 0.0976495 37.3861 0.31736C36.4648 0.537071 35.5192 0.85443 34.5252 1.31826C33.5311 1.7821 32.5855 2.41682 31.6642 3.27125C30.7429 4.12568 29.9428 5.10217 29.264 6.24955C27.3001 5.44394 25.3847 5.02893 23.4936 5.02893C20.075 5.02893 17.0201 6.10307 14.3774 8.25136C11.7347 10.3996 10.0133 13.1338 9.26166 16.4783C6.5462 17.1618 4.31564 18.6022 2.59424 20.7749C0.872826 22.972 0 25.4864 0 28.3183ZM15.4927 38.3029C15.4927 38.8888 15.6866 39.377 16.0746 39.7676C16.4625 40.1826 16.9231 40.3779 17.505 40.3779C18.0869 40.3779 18.5718 40.1826 18.9597 39.7676C19.3477 39.3526 19.5416 38.8644 19.5416 38.3029C19.5416 37.7658 19.3477 37.2776 18.9597 36.887C18.5718 36.4964 18.0869 36.3011 17.505 36.3011C16.9474 36.3011 16.4625 36.4964 16.0746 36.887C15.6866 37.2776 15.4927 37.7414 15.4927 38.3029ZM15.4927 47.189C15.4927 47.7505 15.6866 48.2143 16.0746 48.6049C16.4625 48.9955 16.9474 49.1908 17.4808 49.1908C18.0627 49.1908 18.5476 48.9955 18.9355 48.6293C19.3234 48.2387 19.5174 47.7749 19.5174 47.189C19.5174 46.6031 19.3234 46.1392 18.9355 45.7486C18.5476 45.358 18.0627 45.1872 17.4808 45.1872C16.8989 45.1872 16.4382 45.3825 16.0503 45.7486C15.6866 46.1148 15.4927 46.6031 15.4927 47.189ZM23.2511 43.0389C23.2511 43.6248 23.4451 44.113 23.833 44.4792C24.2209 44.8698 24.7059 45.0651 25.2392 45.0651C25.8211 45.0651 26.306 44.8698 26.7182 44.4792C27.1304 44.0886 27.3243 43.6004 27.3243 43.0389C27.3243 42.453 27.1304 41.9647 26.7182 41.5497C26.306 41.1347 25.8211 40.915 25.2392 40.915C24.7059 40.915 24.2452 41.1347 23.833 41.5497C23.4209 41.9647 23.2511 42.453 23.2511 43.0389ZM23.2511 34.1528C23.2511 34.7387 23.4451 35.2025 23.833 35.5687C24.2209 35.9593 24.7059 36.1546 25.2392 36.1546C25.8211 36.1546 26.3303 35.9593 26.7182 35.5931C27.1061 35.2269 27.3243 34.7387 27.3243 34.1528C27.3243 33.5913 27.1304 33.1031 26.7182 32.6881C26.306 32.2731 25.8211 32.0778 25.2392 32.0778C24.7059 32.0778 24.2209 32.2731 23.833 32.6881C23.4451 33.1031 23.2511 33.5913 23.2511 34.1528ZM23.2511 51.9982C23.2511 52.5353 23.4451 52.9991 23.833 53.3897C24.2452 53.8047 24.7059 54 25.2392 54C25.8211 54 26.306 53.8047 26.7182 53.4141C27.1304 53.0235 27.3243 52.5597 27.3243 51.9738C27.3243 51.3879 27.1304 50.8996 26.7182 50.4846C26.306 50.0696 25.8211 49.8499 25.2392 49.8499C24.7059 49.8499 24.2452 50.0696 23.833 50.4846C23.4693 50.924 23.2511 51.4367 23.2511 51.9982ZM31.1066 38.3029C31.1066 38.8888 31.3005 39.377 31.7127 39.7676C32.1249 40.1582 32.5855 40.3779 33.1674 40.3779C33.7493 40.3779 34.21 40.1826 34.5979 39.7676C34.9858 39.3526 35.1798 38.8644 35.1798 38.3029C35.1798 37.7658 34.9858 37.2776 34.5979 36.887C34.21 36.4964 33.7493 36.3011 33.1674 36.3011C32.5855 36.3011 32.1249 36.4964 31.7127 36.887C31.3005 37.2776 31.1066 37.7414 31.1066 38.3029ZM31.1066 47.189C31.1066 47.7505 31.3005 48.2143 31.6885 48.6049C32.0764 48.9955 32.5613 49.1908 33.1432 49.1908C33.7251 49.1908 34.1857 48.9955 34.5736 48.6049C34.9616 48.2143 35.1313 47.7504 35.1313 47.1646C35.1313 46.5787 34.9373 46.1148 34.5736 45.7242C34.1857 45.3336 33.7251 45.1627 33.1432 45.1627C32.5613 45.1627 32.0764 45.358 31.6885 45.7242C31.3005 46.1148 31.1066 46.6031 31.1066 47.189ZM32.7553 8.39783C33.5069 7.07957 34.5736 6.05425 35.9071 5.32188C37.2406 4.58951 38.6226 4.22333 40.0531 4.19892C40.4167 4.19892 40.6834 4.22333 40.8532 4.24774V5.00452C40.8532 7.37251 41.4835 9.59403 42.7443 11.6935C44.005 13.7929 45.7749 15.3797 48.0055 16.4783C47.6176 17.3571 47.0114 18.236 46.1629 19.0904C44.005 17.1618 41.4108 16.2098 38.3317 16.2098H37.5801C36.9254 13.2071 35.3253 10.6194 32.7553 8.39783Z" fill="#FFFBE9"/>
</svg>

<?xml version="1.0" encoding="UTF-8"?><svg id="Layer_2" xmlns="http://www.w3.org/2000/svg" viewBox="0 0 53 54"><defs><style>.cls-1{fill:#e7f3f6;}</style></defs><g id="Layer_1-2"><path id="snow-night" class="cls-1" d="M0,28.32c0,3.25,1.14,6.03,3.39,8.37,2.25,2.34,5.02,3.59,8.24,3.69,.29,0,.44-.15,.44-.42v-3.27c0-.27-.15-.42-.44-.42-2.06-.1-3.83-.95-5.29-2.51-1.48-1.56-2.21-3.39-2.21-5.47s.68-3.86,2.06-5.37c1.38-1.51,3.08-2.34,5.09-2.51l1.28-.17c.32,0,.48-.15,.48-.42l.17-1.27c.27-2.66,1.36-4.91,3.32-6.71,1.96-1.81,4.27-2.71,6.93-2.71s4.95,.9,6.93,2.69c1.99,1.78,3.1,4,3.39,6.64l.19,1.39c0,.29,.15,.44,.41,.44h3.93c2.21,0,4.07,.78,5.65,2.37,1.58,1.56,2.35,3.44,2.35,5.64,0,2.08-.73,3.91-2.21,5.47s-3.22,2.39-5.29,2.51c-.34,0-.51,.15-.51,.42v3.27c0,.27,.17,.42,.51,.42,2.13-.05,4.07-.63,5.84-1.73,1.77-1.1,3.18-2.56,4.19-4.39,1.02-1.83,1.53-3.81,1.53-5.93s-.53-4.25-1.58-6.05c1.79-1.61,3.01-3.71,3.69-6.3l.41-1.76s.05-.1,.05-.2c0-.17-.12-.32-.39-.39l-1.48-.41c-1.07-.32-2.01-.78-2.84-1.39-.82-.61-1.48-1.29-1.96-2.05-.48-.76-.82-1.51-1.07-2.32-.24-.78-.36-1.56-.36-2.32,0-.66,.07-1.37,.24-2.1l.27-1.51c.05-.22-.05-.42-.34-.54l-1.94-.59c-1.07-.27-2.06-.39-3.03-.39-.9,0-1.79,.1-2.72,.32-.92,.22-1.87,.54-2.86,1-.99,.46-1.94,1.1-2.86,1.95s-1.72,1.83-2.4,2.98c-1.96-.81-3.88-1.22-5.77-1.22-3.42,0-6.47,1.07-9.12,3.22-2.64,2.15-4.36,4.88-5.12,8.23-2.72,.68-4.95,2.12-6.67,4.3-1.72,2.2-2.59,4.71-2.59,7.54Zm15.49,9.98c0,.59,.19,1.07,.58,1.46,.39,.41,.85,.61,1.43,.61s1.07-.2,1.45-.61c.39-.42,.58-.9,.58-1.46s-.19-1.03-.58-1.42c-.39-.39-.87-.59-1.45-.59s-1.04,.2-1.43,.59c-.39,.39-.58,.85-.58,1.42Zm0,8.89c0,.56,.19,1.03,.58,1.42,.39,.39,.87,.59,1.41,.59,.58,0,1.07-.2,1.45-.56,.39-.39,.58-.85,.58-1.44s-.19-1.05-.58-1.44c-.39-.39-.87-.56-1.45-.56s-1.04,.2-1.43,.56c-.36,.37-.56,.85-.56,1.44Zm7.76-4.15c0,.59,.19,1.07,.58,1.44,.39,.39,.87,.59,1.41,.59,.58,0,1.07-.2,1.48-.59,.41-.39,.61-.88,.61-1.44s-.19-1.07-.61-1.49c-.41-.42-.9-.63-1.48-.63-.53,0-.99,.22-1.41,.63-.41,.41-.58,.9-.58,1.49Zm0-8.89c0,.59,.19,1.05,.58,1.42,.39,.39,.87,.59,1.41,.59,.58,0,1.09-.2,1.48-.56,.39-.37,.61-.85,.61-1.44s-.19-1.05-.61-1.46c-.41-.41-.9-.61-1.48-.61-.53,0-1.02,.2-1.41,.61-.39,.42-.58,.9-.58,1.46Zm0,17.85c0,.54,.19,1,.58,1.39,.41,.41,.87,.61,1.41,.61,.58,0,1.07-.2,1.48-.59,.41-.39,.61-.85,.61-1.44s-.19-1.07-.61-1.49c-.41-.42-.9-.63-1.48-.63-.53,0-.99,.22-1.41,.63-.36,.44-.58,.95-.58,1.51Zm7.86-13.7c0,.59,.19,1.07,.61,1.46,.41,.39,.87,.61,1.45,.61s1.04-.2,1.43-.61c.39-.42,.58-.9,.58-1.46s-.19-1.03-.58-1.42c-.39-.39-.85-.59-1.43-.59s-1.04,.2-1.45,.59c-.41,.39-.61,.85-.61,1.42Zm0,8.89c0,.56,.19,1.03,.58,1.42,.39,.39,.87,.59,1.45,.59s1.04-.2,1.43-.59c.39-.39,.56-.85,.56-1.44s-.19-1.05-.56-1.44c-.39-.39-.85-.56-1.43-.56s-1.07,.2-1.45,.56c-.39,.39-.58,.88-.58,1.46Zm1.65-38.79c.75-1.32,1.82-2.34,3.15-3.08s2.72-1.1,4.15-1.12c.36,0,.63,.02,.8,.05v.76c0,2.37,.63,4.59,1.89,6.69,1.26,2.1,3.03,3.69,5.26,4.78-.39,.88-.99,1.76-1.84,2.61-2.16-1.93-4.75-2.88-7.83-2.88h-.75c-.65-3-2.25-5.59-4.82-7.81Z"/></g></svg>
